svg/images/ai.svg

<svg id="Layer_2" xmlns="http://www.w3.org/2000/svg" width="514" height="514" viewBox="0 0 514 514"><linearGradient id="SVGID_1_" gradientUnits="userSpaceOnUse" x1="494.155" y1="5.761" x2="24.483" y2="475.433"><stop offset="0" stop-color="#ffaa2a"/><stop offset="1" stop-color="#ffc06c"/></linearGradient><path fill="url(#SVGID_1_)" d="M17.409 8.256H496.65v469.257H17.409z"/><linearGradient id="SVGID_2_" gradientUnits="userSpaceOnUse" x1="257.332" y1="44.333" x2="257.332" y2="439"><stop offset="0" stop-color="#251200"/><stop offset="1"/></linearGradient><path fill="url(#SVGID_2_)" d="M192.234 247.147h42.48l-21.24-82.371-21.24 82.371zM53.666 45v396h407.333V45H53.666zm204.36 292.462l-15.542-53.532H184.98l-15.542 53.532h-39.372l55.432-189.263v-20.722h52.842l63.202 209.985h-43.516zm104.648 0h-42.48V177.729h42.48v159.733zm-20.982-178.901c-12.16 0-22.018-9.742-22.018-21.758 0-12.017 9.857-21.759 22.018-21.759s22.018 9.742 22.018 21.759c0 12.016-9.857 21.758-22.018 21.758z"/></svg>

<?xml version="1.0" encoding="utf-8"?>
<!-- Generator: Adobe Illustrator 13.0.0, SVG Export Plug-In . SVG Version: 6.00 Build 14948)  -->
<!DOCTYPE svg PUBLIC "-//W3C//DTD SVG 1.1//EN" "http://www.w3.org/Graphics/SVG/1.1/DTD/svg11.dtd">
<svg version="1.1" id="Layer_2" xmlns="http://www.w3.org/2000/svg" xmlns:xlink="http://www.w3.org/1999/xlink" x="0px" y="0px"
	 width="514px" height="514px" viewBox="0 0 514 514" enable-background="new 0 0 514 514" xml:space="preserve">
<linearGradient id="SVGID_1_" gradientUnits="userSpaceOnUse" x1="494.1553" y1="5.7607" x2="24.4834" y2="475.4331">
	<stop  offset="0" style="stop-color:#FFAA2A"/>
	<stop  offset="1" style="stop-color:#FFC06C"/>
</linearGradient>
<rect x="17.409" y="8.256" fill="url(#SVGID_1_)" width="479.241" height="469.257"/>
<linearGradient id="SVGID_2_" gradientUnits="userSpaceOnUse" x1="257.332" y1="44.333" x2="257.332" y2="439">
	<stop  offset="0" style="stop-color:#251200"/>
	<stop  offset="1" style="stop-color:#000000"/>
</linearGradient>
<path fill="url(#SVGID_2_)" d="M192.234,247.147h42.48l-21.24-82.371L192.234,247.147z M53.666,45v396h407.333V45H53.666z
	 M258.026,337.462l-15.542-53.532h-57.504l-15.542,53.532h-39.372l55.432-189.263v-20.722h52.842l63.202,209.985H258.026z
	 M362.674,337.462h-42.48V177.729h42.48V337.462z M341.692,158.561c-12.16,0-22.018-9.742-22.018-21.758
	c0-12.017,9.857-21.759,22.018-21.759s22.018,9.742,22.018,21.759C363.71,148.819,353.853,158.561,341.692,158.561z"/>
</svg>
